plasma/desktoptheme/Monochrome/icons/TeamViewer.svg

<svg width="32" height="32" version="1.1" xmlns="http://www.w3.org/2000/svg">
 <g id="22-22-TeamViewer" transform="translate(32,10)">
  <rect width="22" height="22" style="opacity:.00100002"/>
  <path d="m11 3c-4.4179185-1e-7 -8.0000001 3.5820815-8 8-1e-7 4.417918 3.5820815 8 8 8 4.417918 0 8-3.582082 8-8 0-4.4179185-3.582082-8.0000001-8-8zm-2 5v2h4v-2l3 3-3 3v-2h-4v2l-3-3z" style="fill:#aaaaac"/>
 </g>
 <g id="TeamViewer">
  <rect width="32" height="32" style="opacity:.00100002"/>
  <g>
   <rect transform="matrix(0,-1,-1,0,0,0)" x="-31" y="-30" width="28" height="28" rx="8.4" ry="8.4" style="opacity:.2"/>
   <rect transform="matrix(0,-1,-1,0,0,0)" x="-30" y="-30" width="28" height="28" rx="8.4" ry="8.4" style="fill:#4e91d9"/>
   <path d="m16 6c-6.0751322 0-11 4.924868-11 11s4.9248678 11 11 11c6.075132 0 11-4.924868 11-11s-4.924868-11-11-11zm-4 6.5v2.5h8v-2.5l6 4.5-6 4.5v-2.5h-8v2.5l-6-4.5z" style="opacity:.2"/>
   <path d="m16 5c-6.0751322 0-11 4.9248678-11 11 0 6.075132 4.9248678 11 11 11 6.075132 0 11-4.924868 11-11 0-6.0751322-4.924868-11-11-11zm-4 6.5v2.5h8v-2.5l6 4.5-6 4.5v-2.5h-8v2.5l-6-4.5z" style="fill:#ffffff"/>
   <path d="M 10.400391,2 C 5.7467908,2 2,5.7467908 2,10.400391 v 1 C 2,6.7467908 5.7467908,3 10.400391,3 H 21.599609 C 26.253209,3 30,6.7467908 30,11.400391 v -1 C 30,5.7467908 26.253209,2 21.599609,2 Z" style="fill:#ffffff;opacity:.2"/>
  </g>
 </g>
</svg>

<svg xmlns="http://www.w3.org/2000/svg" width="32" height="32" version="1.1">
 <g id="22-22-TeamViewer" transform="translate(32,10)">
  <rect style="opacity:0.001" width="22" height="22" x="0" y="0"/>
  <path style="fill:#aaaaac" d="m 11,3 c -4.4179185,-10e-8 -8.0000001,3.5820815 -8,8 -10e-8,4.417918 3.5820815,8 8,8 4.417918,0 8,-3.582082 8,-8 C 19,6.5820815 15.417918,2.9999999 11,3 Z M 9,8 v 2 h 4 V 8 l 3,3 -3,3 V 12 H 9 v 2 L 6,11 Z"/>
 </g>
 <g id="TeamViewer">
  <rect width="32" height="32" x="0" y="0" style="opacity:0.001"/>
  <g>
   <rect style="opacity:0.2" width="28" height="28" x="-31" y="-30" rx="8.4" ry="8.4" transform="matrix(0,-1,-1,0,0,0)"/>
   <rect style="fill:#4e91d9" width="28" height="28" x="-30" y="-30" rx="8.4" ry="8.4" transform="matrix(0,-1,-1,0,0,0)"/>
   <path style="opacity:0.2" d="M 16,6 C 9.9248678,6 5,10.924868 5,17 5,23.075132 9.9248678,28 16,28 22.075132,28 27,23.075132 27,17 27,10.924868 22.075132,6 16,6 Z m -4,6.5 V 15 h 8 v -2.5 l 6,4.5 -6,4.5 V 19 h -8 v 2.5 L 6,17 Z"/>
   <path style="fill:#ffffff" d="M 16,5 C 9.9248678,5 5,9.9248678 5,16 5,22.075132 9.9248678,27 16,27 22.075132,27 27,22.075132 27,16 27,9.9248678 22.075132,5 16,5 Z m -4,6.5 V 14 h 8 v -2.5 l 6,4.5 -6,4.5 V 18 h -8 v 2.5 L 6,16 Z"/>
   <path style="opacity:0.2;fill:#ffffff" d="M 10.400391,2 C 5.7467908,2 2,5.7467908 2,10.400391 v 1 C 2,6.7467908 5.7467908,3 10.400391,3 H 21.599609 C 26.253209,3 30,6.7467908 30,11.400391 v -1 C 30,5.7467908 26.253209,2 21.599609,2 Z"/>
  </g>
 </g>
</svg>
